X:1
T:[ID 4-50v]
T:[ID 4-50v]
T:Bezeichnung standardisiert: Menuett mit Trio Menuetto Con Trio 12. \"Ahnlich in dieser Quelle: ID 2-124;
T:Urheber unbekannt Erstbeleg: 1767 (Datum in der schriftlichen Quelle) Datum in der hier transkribierten schriftlichen Quelle: vermutlich um 1800
C:Urheber unbekannt
C:Erstbeleg: 1767 (Datum in der schriftlichen Quelle)
C:Datum in der hier transkribierten schriftlichen Quelle: vermutlich um 1800
L:1/8
M:3/4
K:D
V:1 treble 
V:1
 A2 | d4 fa | g2 e2 c2 | d4 fa | g2 e2 c2 | d2 f2 d2 | e2 g2 c2 | d2 fdec | d4 :: A2 | A4 ge | %11
 f2 c2 d2 | A4 ge | f4 A2 | d4 fa | g2 e2 c2 | d2 fdec | d4 :|[M:3/4]"^Trio" !fermata!A2 | %19
 d2 f2 f2 | e2 g2 g2 | f2 (fe)(ed) | Tc4 A2 | d2 f2 f2 | e2 g2 g2 | f2 edec | d4 :: e2 | e2 f2 g2 | %29
 Tf4 ed | e2 efge | Tf4 A2 | d2 f2 f2 | e2 g2 g2 | f2 edec | d4 :| %36

